src/images/close.svg

<svg fill="none" height="40" viewBox="0 0 40 40" width="40" xmlns="http://www.w3.org/2000/svg"><g fill="#fff"><path d="m22.3566 20 7.643 7.643c.6509.6508.6509 1.7061 0 2.357s-1.7061.6509-2.357 0l-9.2929-9.2929c-.3905-.3905-.3905-1.0237 0-1.4142l9.2929-9.2929c.6509-.65088 1.7061-.65088 2.357 0 .6509.6509.6509 1.7061 0 2.357z"/><path d="m18.1307 20-7.643 7.643c-.65087.6508-.65087 1.7061 0 2.357.6509.6509 1.7062.6509 2.357 0l9.2929-9.2929c.3905-.3905.3905-1.0237 0-1.4142l-9.2929-9.2929c-.6508-.65088-1.7061-.65087-2.357 0-.65087.6509-.65087 1.7061 0 2.357z"/></g></svg>

<svg width="40" height="40" viewBox="0 0 40 40" fill="none" xmlns="http://www.w3.org/2000/svg">
<path d="M22.3566 20L29.9996 27.643C30.6505 28.2938 30.6505 29.3491 29.9996 30C29.3487 30.6509 28.2935 30.6509 27.6426 30L18.3497 20.7071C17.9592 20.3166 17.9592 19.6834 18.3497 19.2929L27.6426 10C28.2935 9.34912 29.3487 9.34912 29.9996 10C30.6505 10.6509 30.6505 11.7061 29.9996 12.357L22.3566 20Z" fill="white"/>
<path d="M18.1307 20L10.4877 27.643C9.83683 28.2938 9.83683 29.3491 10.4877 30C11.1386 30.6509 12.1939 30.6509 12.8447 30L22.1376 20.7071C22.5281 20.3166 22.5281 19.6834 22.1376 19.2929L12.8447 10C12.1939 9.34912 11.1386 9.34913 10.4877 10C9.83683 10.6509 9.83683 11.7061 10.4877 12.357L18.1307 20Z" fill="white"/>
</svg>
